Numix-GalliumOS/16/actions/stock_insert-note.svg

<?xml version="1.0" encoding="UTF-8" standalone="no"?>
<svg
   xmlns:dc="http://purl.org/dc/elements/1.1/"
   xmlns:cc="http://creativecommons.org/ns#"
   xmlns:rdf="http://www.w3.org/1999/02/22-rdf-syntax-ns#"
   xmlns:svg="http://www.w3.org/2000/svg"
   xmlns="http://www.w3.org/2000/svg"
   xmlns:xlink="http://www.w3.org/1999/xlink"
   xmlns:sodipodi="http://sodipodi.sourceforge.net/DTD/sodipodi-0.dtd"
   xmlns:inkscape="http://www.inkscape.org/namespaces/inkscape"
   viewBox="0 0 16 16"
   id="svg2"
   version="1.1"
   inkscape:version="0.91 r13725"
   sodipodi:docname="stock_insert-note.svg"
   width="16"
   height="16">
  <metadata
     id="metadata98">
    <rdf:RDF>
      <cc:Work
         rdf:about="">
        <dc:format>image/svg+xml</dc:format>
        <dc:type
           rdf:resource="http://purl.org/dc/dcmitype/StillImage" />
        <dc:title />
      </cc:Work>
    </rdf:RDF>
  </metadata>
  <sodipodi:namedview
     pagecolor="#ffffff"
     bordercolor="#666666"
     borderopacity="1"
     objecttolerance="10"
     gridtolerance="10"
     guidetolerance="10"
     inkscape:pageopacity="0"
     inkscape:pageshadow="2"
     inkscape:window-width="1366"
     inkscape:window-height="704"
     id="namedview96"
     showgrid="false"
     inkscape:zoom="22.627417"
     inkscape:cx="8.9928162"
     inkscape:cy="7.4678902"
     inkscape:window-x="0"
     inkscape:window-y="27"
     inkscape:window-maximized="1"
     inkscape:current-layer="svg2">
    <inkscape:grid
       type="xygrid"
       id="grid4360" />
  </sodipodi:namedview>
  <defs
     id="defs4">
    <path
       id="SVGCleanerId_0"
       d="m 14,12 20,0 c 1.105,0 2,0.895 2,2 l 0,20 c 0,1.105 -0.895,2 -2,2 l -20,0 c -1.105,0 -2,-0.895 -2,-2 l 0,-20 c 0,-1.105 0.895,-2 2,-2 m 0,0"
       inkscape:connector-curvature="0" />
  </defs>
  <g
     id="g34"
     transform="translate(0,-32)" />
  <use
     height="100%"
     width="100%"
     y="0"
     x="0"
     style="fill:none;stroke:#af8566;stroke-width:2.87999988;stroke-linecap:butt;stroke-linejoin:miter;stroke-miterlimit:4;stroke-dasharray:none;stroke-opacity:1"
     id="use72"
     xlink:href="#SVGCleanerId_0"
     stroke-miterlimit="4"
     transform="matrix(0.52083334,0,0,0.52083334,-4.5000002,-4.5000002)" />
  <use
     height="100%"
     width="100%"
     y="0"
     x="0"
     style="fill:#fff4ab;fill-opacity:1;fill-rule:nonzero;stroke:none"
     id="use74"
     xlink:href="#SVGCleanerId_0"
     transform="matrix(0.5,0,0,0.5,-4,-4)" />
  <path
     style="fill:#e4d66a;fill-opacity:1;fill-rule:nonzero;stroke:none"
     inkscape:connector-curvature="0"
     id="path84"
     d="m 2,11 12,0 0,1 -12,0 z"
     sodipodi:nodetypes="ccccc" />
  <path
     style="fill:#e4d66a;fill-opacity:1;fill-rule:nonzero;stroke:none"
     inkscape:connector-curvature="0"
     id="path84-3"
     d="M 2.0000001,8 14,8 14,9 2.0000001,9 Z"
     sodipodi:nodetypes="ccccc" />
  <path
     style="fill:#e4d66a;fill-opacity:1;fill-rule:nonzero;stroke:none"
     inkscape:connector-curvature="0"
     id="path84-3-9"
     d="M 2.0000001,5.0000002 14,5.0000002 14,6 2.0000001,6 Z"
     sodipodi:nodetypes="ccccc" />
  <path
     style="fill:#e6b2a9;fill-opacity:1;fill-rule:nonzero;stroke:none"
     inkscape:connector-curvature="0"
     id="path86"
     d="M 5,2 6,2 6,14 5,14 Z"
     sodipodi:nodetypes="ccccc" />
  <path
     inkscape:connector-curvature="0"
     style="fill:#859900"
     d="m 16,10 -3,0 0,-3 -2.999999,0 0,3 L 7,10 l 0,3 3.000001,0 0,3 L 13,16 l 0,-3 3,0 z"
     id="path10" />
</svg>

<svg xmlns="http://www.w3.org/2000/svg" xmlns:xlink="http://www.w3.org/1999/xlink" viewBox="0 0 16 16">
 <defs>
  <path id="SVGCleanerId_0" d="m 14 12 20 0 c 1.105 0 2 0.895 2 2 l 0 20 c 0 1.105 -0.895 2 -2 2 l -20 0 c -1.105 0 -2 -0.895 -2 -2 l 0 -20 c 0 -1.105 0.895 -2 2 -2 m 0 0"/>
 </defs>
 <use height="16" width="16" xlink:href="#SVGCleanerId_0" transform="matrix(0.52083334,0,0,0.52083334,-4.5000002,-4.5000002)" style="stroke-dasharray:none;stroke-opacity:1;fill:none;stroke-miterlimit:4;stroke:#af8566;stroke-linecap:butt;stroke-linejoin:miter;stroke-width:2.88"/>
 <use height="16" width="16" xlink:href="#SVGCleanerId_0" transform="matrix(0.5,0,0,0.5,-4,-4)" style="fill:#fff4ab;fill-opacity:1;stroke:none;fill-rule:nonzero"/>
 <path d="m 2 11 12 0 0 1 -12 0 z" style="fill:#e4d66a;fill-opacity:1;stroke:none;fill-rule:nonzero"/>
 <path d="m 2 8 12 0 0 1 -12 0" style="fill:#e4d66a;fill-opacity:1;stroke:none;fill-rule:nonzero"/>
 <path d="m 2 5 12 0 0 1 -12 0" style="fill:#e4d66a;fill-opacity:1;stroke:none;fill-rule:nonzero"/>
 <path d="m 5 2 1 0 0 12 -1 0" style="fill:#e6b2a9;fill-opacity:1;stroke:none;fill-rule:nonzero"/>
 <path d="m 16 10 -3 0 0 -3 -3 0 0 3 l -3 0 l 0 3 3 0 0 3 l 3 0 l 0 -3 3 0 z" style="fill:#859900"/>
</svg>
